svg/color/crystl.svg

<?xml version="1.0" encoding="UTF-8" ?>
<!DOCTYPE svg PUBLIC "-//W3C//DTD SVG 1.1//EN" "http://www.w3.org/Graphics/SVG/1.1/DTD/svg11.dtd">
<svg width="250pt" height="250pt" viewBox="0 0 250 250" version="1.1" xmlns="http://www.w3.org/2000/svg">
<g id="#fdfdfdff">
<path fill="#fdfdfd" opacity="1.00" d=" M 0.00 0.00 L 118.24 0.00 C 90.86 1.63 64.06 12.28 43.35 30.32 C 17.67 52.14 1.82 84.77 0.00 118.37 L 0.00 0.00 Z" />
<path fill="#fdfdfd" opacity="1.00" d=" M 131.69 0.00 L 250.00 0.00 L 250.00 120.40 C 248.89 86.07 232.78 52.57 206.63 30.31 C 185.90 12.28 159.09 1.60 131.69 0.00 Z" />
<path fill="#fdfdfd" opacity="1.00" d=" M 117.06 2.93 C 135.74 1.71 154.74 4.79 172.02 12.04 C 200.62 23.79 224.30 46.95 236.77 75.24 C 245.54 94.81 248.96 116.75 246.62 138.06 C 243.86 165.38 231.33 191.53 212.00 211.00 C 191.93 231.41 164.46 244.54 135.88 246.78 C 124.21 248.10 112.40 247.06 100.89 244.97 C 72.97 239.46 47.23 223.74 29.51 201.47 C 13.92 182.12 4.43 157.88 2.95 133.06 C 1.60 113.55 5.06 93.70 12.98 75.81 C 25.39 47.24 49.21 23.83 78.03 12.01 C 90.40 6.77 103.67 3.84 117.06 2.93 M 112.61 16.91 C 92.60 19.10 73.37 27.24 57.55 39.63 C 39.72 53.46 26.71 73.21 20.47 94.85 C 14.41 115.72 14.88 138.41 21.74 159.02 C 29.95 184.21 47.84 206.11 70.90 219.14 C 89.96 229.94 112.28 235.09 134.13 233.10 C 154.65 231.30 174.59 223.52 190.98 211.06 C 210.58 195.94 224.93 174.07 230.49 149.91 C 235.95 127.48 233.79 103.34 224.64 82.16 C 214.48 57.93 195.02 37.85 171.23 26.73 C 153.14 17.93 132.56 14.77 112.61 16.91 Z" />
<path fill="#fdfdfd" opacity="1.00" d=" M 68.48 84.48 C 82.58 62.59 108.90 49.03 134.93 51.10 C 156.61 51.94 177.24 63.49 190.14 80.79 C 191.20 82.40 192.77 83.87 193.01 85.87 C 192.44 87.03 191.08 87.40 190.11 88.12 C 178.72 94.97 167.54 102.16 156.13 108.96 C 148.99 102.01 141.90 94.99 134.70 88.11 C 133.99 87.22 132.53 87.03 131.62 87.67 C 124.51 92.56 117.40 97.45 110.24 102.27 C 109.18 102.89 108.76 104.13 108.16 105.13 C 104.94 111.48 101.48 117.71 98.36 124.11 C 98.36 124.54 98.36 125.40 98.35 125.83 C 101.80 132.92 105.50 139.91 109.07 146.94 C 116.67 152.30 124.25 157.82 132.09 162.83 C 132.51 162.76 133.35 162.61 133.77 162.54 C 141.05 155.90 148.12 149.00 155.13 142.07 C 156.06 142.42 156.96 142.83 157.84 143.31 C 169.51 150.58 181.21 157.82 192.96 164.97 C 178.91 187.63 151.69 201.31 125.13 198.91 C 106.44 197.78 88.45 188.88 75.88 175.06 C 66.25 164.52 59.62 151.17 57.43 137.03 C 54.40 118.95 58.37 99.79 68.48 84.48 Z" />
<path fill="#fdfdfd" opacity="1.00" d=" M 133.84 94.03 C 142.73 102.11 151.21 110.66 159.91 118.96 C 149.26 115.99 139.00 111.66 128.51 108.14 C 130.34 103.46 132.07 98.74 133.84 94.03 Z" />
<path fill="#fdfdfd" opacity="1.00" d=" M 116.92 104.05 C 119.77 100.41 124.48 98.69 127.95 95.66 C 127.20 99.47 125.47 102.97 124.18 106.62 C 121.77 105.73 119.34 104.89 116.92 104.05 Z" />
<path fill="#fdfdfd" opacity="1.00" d=" M 115.37 108.40 C 117.76 109.23 120.15 110.07 122.55 110.88 C 121.53 113.50 120.54 116.13 119.89 118.87 C 118.14 115.49 116.82 111.92 115.37 108.40 Z" />
<path fill="#fdfdfd" opacity="1.00" d=" M 122.32 125.05 C 123.55 120.76 125.47 116.71 126.90 112.49 C 138.94 116.61 150.82 121.22 162.94 125.10 C 151.00 129.63 138.83 133.55 126.78 137.75 C 125.37 133.49 123.32 129.42 122.32 125.05 Z" />
<path fill="#fdfdfd" opacity="1.00" d=" M 108.53 113.93 C 109.06 121.01 108.77 128.14 108.60 135.24 C 106.46 132.08 104.56 128.57 103.32 124.97 C 104.55 121.10 107.20 117.80 108.53 113.93 Z" />
<path fill="#fdfdfd" opacity="1.00" d=" M 113.64 116.80 C 115.00 119.40 116.25 122.13 116.91 125.01 C 116.28 127.87 114.92 130.52 113.62 133.13 C 113.41 127.69 113.38 122.24 113.64 116.80 Z" />
<path fill="#fdfdfd" opacity="1.00" d=" M 0.00 129.74 C 1.16 164.47 17.67 198.36 44.40 220.58 C 65.69 238.76 93.35 249.15 121.29 250.00 L 0.00 250.00 L 0.00 129.74 Z" />
<path fill="#fdfdfd" opacity="1.00" d=" M 128.55 141.94 C 139.03 138.53 149.41 134.82 159.83 131.24 C 152.91 138.20 145.71 144.85 138.60 151.60 C 136.93 153.14 135.48 154.98 133.43 156.04 C 131.93 151.29 129.75 146.77 128.55 141.94 Z" />
<path fill="#fdfdfd" opacity="1.00" d=" M 119.24 131.89 C 121.00 133.97 121.24 136.84 122.48 139.20 C 120.08 140.08 117.68 140.94 115.25 141.74 C 116.53 138.44 117.93 135.18 119.24 131.89 Z" />
<path fill="#fdfdfd" opacity="1.00" d=" M 211.93 214.90 C 234.57 193.25 248.27 162.81 250.00 131.57 L 250.00 250.00 L 127.80 250.00 C 158.93 249.40 189.61 236.63 211.93 214.90 Z" />
<path fill="#fdfdfd" opacity="1.00" d=" M 117.22 146.01 C 119.45 145.08 121.78 144.43 124.05 143.58 C 125.21 147.10 126.64 150.54 127.81 154.06 C 123.96 152.16 120.60 149.40 117.10 146.92 L 117.22 146.01 Z" />
</g>
<g id="#0a0a43ff">
<path fill="#0a0a43" opacity="1.00" d=" M 118.24 0.00 L 131.69 0.00 C 159.09 1.60 185.90 12.28 206.63 30.31 C 232.78 52.57 248.89 86.07 250.00 120.40 L 250.00 131.57 C 248.27 162.81 234.57 193.25 211.93 214.90 C 189.61 236.63 158.93 249.40 127.80 250.00 L 121.29 250.00 C 93.35 249.15 65.69 238.76 44.40 220.58 C 17.67 198.36 1.16 164.47 0.00 129.74 L 0.00 118.37 C 1.82 84.77 17.67 52.14 43.35 30.32 C 64.06 12.28 90.86 1.63 118.24 0.00 M 117.06 2.93 C 103.67 3.84 90.40 6.77 78.03 12.01 C 49.21 23.83 25.39 47.24 12.98 75.81 C 5.06 93.70 1.60 113.55 2.95 133.06 C 4.43 157.88 13.92 182.12 29.51 201.47 C 47.23 223.74 72.97 239.46 100.89 244.97 C 112.40 247.06 124.21 248.10 135.88 246.78 C 164.46 244.54 191.93 231.41 212.00 211.00 C 231.33 191.53 243.86 165.38 246.62 138.06 C 248.96 116.75 245.54 94.81 236.77 75.24 C 224.30 46.95 200.62 23.79 172.02 12.04 C 154.74 4.79 135.74 1.71 117.06 2.93 Z" />
<path fill="#0a0a43" opacity="1.00" d=" M 112.61 16.91 C 132.56 14.77 153.14 17.93 171.23 26.73 C 195.02 37.85 214.48 57.93 224.64 82.16 C 233.79 103.34 235.95 127.48 230.49 149.91 C 224.93 174.07 210.58 195.94 190.98 211.06 C 174.59 223.52 154.65 231.30 134.13 233.10 C 112.28 235.09 89.96 229.94 70.90 219.14 C 47.84 206.11 29.95 184.21 21.74 159.02 C 14.88 138.41 14.41 115.72 20.47 94.85 C 26.71 73.21 39.72 53.46 57.55 39.63 C 73.37 27.24 92.60 19.10 112.61 16.91 M 68.48 84.48 C 58.37 99.79 54.40 118.95 57.43 137.03 C 59.62 151.17 66.25 164.52 75.88 175.06 C 88.45 188.88 106.44 197.78 125.13 198.91 C 151.69 201.31 178.91 187.63 192.96 164.97 C 181.21 157.82 169.51 150.58 157.84 143.31 C 156.96 142.83 156.06 142.42 155.13 142.07 C 148.12 149.00 141.05 155.90 133.77 162.54 C 133.35 162.61 132.51 162.76 132.09 162.83 C 124.25 157.82 116.67 152.30 109.07 146.94 C 105.50 139.91 101.80 132.92 98.35 125.83 C 98.36 125.40 98.36 124.54 98.36 124.11 C 101.48 117.71 104.94 111.48 108.16 105.13 C 108.76 104.13 109.18 102.89 110.24 102.27 C 117.40 97.45 124.51 92.56 131.62 87.67 C 132.53 87.03 133.99 87.22 134.70 88.11 C 141.90 94.99 148.99 102.01 156.13 108.96 C 167.54 102.16 178.72 94.97 190.11 88.12 C 191.08 87.40 192.44 87.03 193.01 85.87 C 192.77 83.87 191.20 82.40 190.14 80.79 C 177.24 63.49 156.61 51.94 134.93 51.10 C 108.90 49.03 82.58 62.59 68.48 84.48 M 133.84 94.03 C 132.07 98.74 130.34 103.46 128.51 108.14 C 139.00 111.66 149.26 115.99 159.91 118.96 C 151.21 110.66 142.73 102.11 133.84 94.03 M 116.92 104.05 C 119.34 104.89 121.77 105.73 124.18 106.62 C 125.47 102.97 127.20 99.47 127.95 95.66 C 124.48 98.69 119.77 100.41 116.92 104.05 M 115.37 108.40 C 116.82 111.92 118.14 115.49 119.89 118.87 C 120.54 116.13 121.53 113.50 122.55 110.88 C 120.15 110.07 117.76 109.23 115.37 108.40 M 122.32 125.05 C 123.32 129.42 125.37 133.49 126.78 137.75 C 138.83 133.55 151.00 129.63 162.94 125.10 C 150.82 121.22 138.94 116.61 126.90 112.49 C 125.47 116.71 123.55 120.76 122.32 125.05 M 108.53 113.93 C 107.20 117.80 104.55 121.10 103.32 124.97 C 104.56 128.57 106.46 132.08 108.60 135.24 C 108.77 128.14 109.06 121.01 108.53 113.93 M 113.64 116.80 C 113.38 122.24 113.41 127.69 113.62 133.13 C 114.92 130.52 116.28 127.87 116.91 125.01 C 116.25 122.13 115.00 119.40 113.64 116.80 M 128.55 141.94 C 129.75 146.77 131.93 151.29 133.43 156.04 C 135.48 154.98 136.93 153.14 138.60 151.60 C 145.71 144.85 152.91 138.20 159.83 131.24 C 149.41 134.82 139.03 138.53 128.55 141.94 M 119.24 131.89 C 117.93 135.18 116.53 138.44 115.25 141.74 C 117.68 140.94 120.08 140.08 122.48 139.20 C 121.24 136.84 121.00 133.97 119.24 131.89 M 117.22 146.01 L 117.10 146.92 C 120.60 149.40 123.96 152.16 127.81 154.06 C 126.64 150.54 125.21 147.10 124.05 143.58 C 121.78 144.43 119.45 145.08 117.22 146.01 Z" />
</g>
</svg>

<?xml version="1.0" encoding="utf-8"?>
<!-- Generator: Adobe Illustrator 26.0.3, SVG Export Plug-In . SVG Version: 6.00 Build 0)  -->
<svg version="1.1" id="Layer_1" xmlns="http://www.w3.org/2000/svg" xmlns:xlink="http://www.w3.org/1999/xlink" x="0px" y="0px"
	 viewBox="0 0 250 250" style="enable-background:new 0 0 250 250;" xml:space="preserve">
<style type="text/css">
	.st0{fill:#FDFDFD;}
	.st1{fill:#0A0A43;}
</style>
<g id="_x23_fdfdfdff">
	<path class="st0" d="M117.1,2.9c18.7-1.2,37.7,1.9,55,9.1c28.6,11.8,52.3,34.9,64.8,63.2c8.8,19.6,12.2,41.5,9.8,62.8
		c-2.8,27.3-15.3,53.5-34.6,72.9c-20.1,20.4-47.5,33.5-76.1,35.8c-11.7,1.3-23.5,0.3-35-1.8c-27.9-5.5-53.7-21.2-71.4-43.5
		C13.9,182.1,4.4,157.9,3,133.1c-1.4-19.5,2.1-39.4,10-57.2C25.4,47.2,49.2,23.8,78,12C90.4,6.8,103.7,3.8,117.1,2.9 M112.6,16.9
		c-20,2.2-39.2,10.3-55.1,22.7C39.7,53.5,26.7,73.2,20.5,94.8c-6.1,20.9-5.6,43.6,1.3,64.2c8.2,25.2,26.1,47.1,49.2,60.1
		c19.1,10.8,41.4,15.9,63.2,14c20.5-1.8,40.5-9.6,56.8-22c19.6-15.1,33.9-37,39.5-61.1c5.5-22.4,3.3-46.6-5.9-67.8
		c-10.2-24.2-29.6-44.3-53.4-55.4C153.1,17.9,132.6,14.8,112.6,16.9z"/>
	<path class="st0" d="M68.5,84.5c14.1-21.9,40.4-35.5,66.4-33.4c21.7,0.8,42.3,12.4,55.2,29.7c1.1,1.6,2.6,3.1,2.9,5.1
		c-0.6,1.2-1.9,1.5-2.9,2.2c-11.4,6.8-22.6,14-34,20.8c-7.1-6.9-14.2-14-21.4-20.8c-0.7-0.9-2.2-1.1-3.1-0.4
		c-7.1,4.9-14.2,9.8-21.4,14.6c-1.1,0.6-1.5,1.9-2.1,2.9c-3.2,6.4-6.7,12.6-9.8,19c0,0.4,0,1.3,0,1.7c3.5,7.1,7.2,14.1,10.7,21.1
		c7.6,5.4,15.2,10.9,23,15.9c0.4-0.1,1.3-0.2,1.7-0.3c7.3-6.6,14.3-13.5,21.4-20.5c0.9,0.3,1.8,0.8,2.7,1.2
		c11.7,7.3,23.4,14.5,35.1,21.7c-14.1,22.7-41.3,36.3-67.8,33.9c-18.7-1.1-36.7-10-49.2-23.9c-9.6-10.5-16.3-23.9-18.4-38
		C54.4,118.9,58.4,99.8,68.5,84.5z"/>
	<path class="st0" d="M133.8,94c8.9,8.1,17.4,16.6,26.1,24.9c-10.7-3-20.9-7.3-31.4-10.8C130.3,103.5,132.1,98.7,133.8,94z"/>
	<path class="st0" d="M116.9,104.1c2.8-3.6,7.6-5.4,11-8.4c-0.8,3.8-2.5,7.3-3.8,11C121.8,105.7,119.3,104.9,116.9,104.1z"/>
	<path class="st0" d="M115.4,108.4c2.4,0.8,4.8,1.7,7.2,2.5c-1,2.6-2,5.2-2.7,8C118.1,115.5,116.8,111.9,115.4,108.4z"/>
	<path class="st0" d="M122.3,125.1c1.2-4.3,3.2-8.3,4.6-12.6c12,4.1,23.9,8.7,36,12.6c-11.9,4.5-24.1,8.5-36.2,12.7
		C125.4,133.5,123.3,129.4,122.3,125.1z"/>
	<path class="st0" d="M108.5,113.9c0.5,7.1,0.2,14.2,0.1,21.3c-2.1-3.2-4-6.7-5.3-10.3C104.6,121.1,107.2,117.8,108.5,113.9z"/>
	<path class="st0" d="M113.6,116.8c1.4,2.6,2.6,5.3,3.3,8.2c-0.6,2.9-2,5.5-3.3,8.1C113.4,127.7,113.4,122.2,113.6,116.8z"/>
	<path class="st0" d="M128.6,141.9c10.5-3.4,20.9-7.1,31.3-10.7c-6.9,7-14.1,13.6-21.2,20.4c-1.7,1.5-3.1,3.4-5.2,4.4
		C131.9,151.3,129.8,146.8,128.6,141.9z"/>
	<path class="st0" d="M119.2,131.9c1.8,2.1,2,4.9,3.2,7.3c-2.4,0.9-4.8,1.7-7.2,2.5C116.5,138.4,117.9,135.2,119.2,131.9z"/>
	<path class="st0" d="M117.2,146c2.2-0.9,4.6-1.6,6.8-2.4c1.2,3.5,2.6,7,3.8,10.5c-3.8-1.9-7.2-4.7-10.7-7.1L117.2,146z"/>
</g>
<g id="_x23_0a0a43ff">
	<path class="st1" d="M118.2,0h13.5c27.4,1.6,54.2,12.3,74.9,30.3c26.1,22.3,42.3,55.8,43.4,90.1v11.2
		c-1.7,31.2-15.4,61.7-38.1,83.3c-22.3,21.7-53,34.5-84.1,35.1h-6.5c-27.9-0.9-55.6-11.2-76.9-29.4C17.7,198.4,1.2,164.5,0,129.7
		v-11.4c1.8-33.6,17.7-66.2,43.3-88.1C64.1,12.3,90.9,1.6,118.2,0 M117.1,2.9C103.7,3.8,90.4,6.8,78,12C49.2,23.8,25.4,47.2,13,75.8
		C5.1,93.7,1.6,113.6,3,133.1c1.5,24.8,11,49.1,26.6,68.4c17.7,22.3,43.5,38,71.4,43.5c11.5,2.1,23.3,3.1,35,1.8
		c28.6-2.2,56-15.4,76.1-35.8c19.3-19.5,31.9-45.6,34.6-72.9c2.3-21.3-1.1-43.2-9.8-62.8C224.3,47,200.6,23.8,172,12
		C154.7,4.8,135.7,1.7,117.1,2.9z"/>
	<path class="st1" d="M112.6,16.9c19.9-2.1,40.5,1,58.6,9.8c23.8,11.1,43.2,31.2,53.4,55.4c9.1,21.2,11.3,45.3,5.9,67.8
		c-5.6,24.2-19.9,46-39.5,61.1c-16.4,12.5-36.3,20.2-56.8,22c-21.9,2-44.2-3.2-63.2-14c-23.1-13-41-34.9-49.2-60.1
		c-6.9-20.6-7.3-43.3-1.3-64.2c6.2-21.6,19.3-41.4,37.1-55.2C73.4,27.2,92.6,19.1,112.6,16.9 M68.5,84.5
		C58.4,99.8,54.4,118.9,57.4,137c2.2,14.1,8.8,27.5,18.4,38c12.6,13.8,30.6,22.7,49.2,23.9c26.6,2.4,53.8-11.3,67.8-33.9
		c-11.8-7.1-23.5-14.4-35.1-21.7c-0.9-0.5-1.8-0.9-2.7-1.2c-7,6.9-14.1,13.8-21.4,20.5c-0.4,0.1-1.3,0.2-1.7,0.3
		c-7.8-5-15.4-10.5-23-15.9c-3.6-7-7.3-14-10.7-21.1c0-0.4,0-1.3,0-1.7c3.1-6.4,6.6-12.6,9.8-19c0.6-1,1-2.2,2.1-2.9
		c7.2-4.8,14.3-9.7,21.4-14.6c0.9-0.6,2.4-0.4,3.1,0.4C141.9,95,149,102,156.1,109c11.4-6.8,22.6-14,34-20.8c1-0.7,2.3-1.1,2.9-2.2
		c-0.2-2-1.8-3.5-2.9-5.1c-12.9-17.3-33.5-28.9-55.2-29.7C108.9,49,82.6,62.6,68.5,84.5 M133.8,94c-1.8,4.7-3.5,9.4-5.3,14.1
		c10.5,3.5,20.8,7.8,31.4,10.8C151.2,110.7,142.7,102.1,133.8,94 M116.9,104.1c2.4,0.8,4.8,1.7,7.3,2.6c1.3-3.7,3-7.2,3.8-11
		C124.5,98.7,119.8,100.4,116.9,104.1 M115.4,108.4c1.4,3.5,2.8,7.1,4.5,10.5c0.7-2.7,1.6-5.4,2.7-8
		C120.2,110.1,117.8,109.2,115.4,108.4 M122.3,125.1c1,4.4,3.1,8.4,4.5,12.7c12.1-4.2,24.2-8.1,36.2-12.7c-12.1-3.9-24-8.5-36-12.6
		C125.5,116.7,123.6,120.8,122.3,125.1 M108.5,113.9c-1.3,3.9-4,7.2-5.2,11c1.2,3.6,3.1,7.1,5.3,10.3
		C108.8,128.1,109.1,121,108.5,113.9 M113.6,116.8c-0.3,5.4-0.2,10.9,0,16.3c1.3-2.6,2.7-5.3,3.3-8.1
		C116.2,122.1,115,119.4,113.6,116.8 M128.6,141.9c1.2,4.8,3.4,9.3,4.9,14.1c2.1-1.1,3.5-2.9,5.2-4.4c7.1-6.8,14.3-13.4,21.2-20.4
		C149.4,134.8,139,138.5,128.6,141.9 M119.2,131.9c-1.3,3.3-2.7,6.6-4,9.9c2.4-0.8,4.8-1.7,7.2-2.5C121.2,136.8,121,134,119.2,131.9
		 M117.2,146l-0.1,0.9c3.5,2.5,6.9,5.2,10.7,7.1c-1.2-3.5-2.6-7-3.8-10.5C121.8,144.4,119.4,145.1,117.2,146z"/>
</g>
</svg>
